assets/img/logo2.svg

<svg width="173" height="50" viewBox="0 0 173 50" fill="none" xmlns="http://www.w3.org/2000/svg">
<path d="M20.4338 30.0021C21.6244 31.079 23.2018 31.7347 24.9319 31.7347C28.6403 31.7347 31.6468 28.7199 31.6468 25.0013C31.6468 21.2831 28.6403 18.2656 24.9319 18.2656C23.1947 18.2656 21.6079 18.9284 20.4149 20.0171C20.3885 20.0388 20.3646 20.0625 20.3386 20.0889C19.1456 21.1752 17.5608 21.838 15.8239 21.838C14.0866 21.838 12.4999 21.1752 11.3092 20.0889C11.2829 20.0625 11.2592 20.0388 11.2326 20.0171C10.0395 18.9284 8.45276 18.2656 6.7155 18.2656C3.00716 18.2656 0.000610352 21.2831 0.000610352 25.0013C0.000610352 28.7199 3.00716 31.7347 6.7155 31.7347C8.44567 31.7347 10.0227 31.079 11.2134 30.0021C11.2515 29.9686 11.2899 29.9328 11.3281 29.8945C12.5164 28.8176 14.0937 28.1623 15.8239 28.1623C17.5541 28.1623 19.1287 28.818 20.3194 29.8945C20.3575 29.9328 20.3956 29.9686 20.4338 30.0021Z" fill="#FF5C35"/>
<path d="M24.9305 0C21.2215 0 18.2146 3.01515 18.2146 6.73469C18.2146 10.4542 21.2215 13.4694 24.9305 13.4694C31.2709 13.4694 36.4297 18.6427 36.4297 25.0002C36.4297 31.358 31.2705 36.531 24.9305 36.531C21.2215 36.531 18.2146 39.5461 18.2146 43.2656C18.2146 46.9849 21.2215 50 24.9305 50C38.6994 50 49.8622 38.8065 49.8622 24.9998C49.8622 11.1931 38.6994 0 24.9305 0Z" fill="#FF5C35"/>
<path d="M6.71624 13.4694C10.4255 13.4694 13.4325 10.4542 13.4325 6.73469C13.4325 3.01522 10.4255 0 6.71624 0C3.00696 0 0 3.01522 0 6.73469C0 10.4542 3.00696 13.4694 6.71624 13.4694Z" fill="#FF5C35"/>
<path d="M148.918 40.6887V8.64062H162.836C164.85 8.64062 166.605 8.99163 168.101 9.69363C169.596 10.3956 170.756 11.3876 171.58 12.6695C172.404 13.9514 172.816 15.4623 172.816 17.202V17.7514C172.816 19.6743 172.359 21.2309 171.443 22.4213C170.527 23.6117 169.398 24.4815 168.055 25.0309V25.855C169.276 25.9161 170.222 26.3434 170.894 27.1369C171.565 27.9 171.901 28.9225 171.901 30.2044V40.6887H165.857V31.0743C165.857 30.3418 165.659 29.7466 165.262 29.2887C164.896 28.8309 164.27 28.602 163.385 28.602H154.961V40.6887H148.918ZM154.961 23.108H162.195C163.629 23.108 164.743 22.7265 165.537 21.9635C166.361 21.1699 166.773 20.1322 166.773 18.8502V18.3924C166.773 17.1105 166.376 16.088 165.583 15.3249C164.789 14.5314 163.66 14.1346 162.195 14.1346H154.961V23.108Z" fill="#121212"/>
<path d="M130.431 41.33C126.402 41.33 123.198 40.2312 120.817 38.0336C118.436 35.8055 117.246 32.6312 117.246 28.5108V20.8192C117.246 16.6988 118.436 13.5397 120.817 11.3422C123.198 9.11405 126.402 8 130.431 8C134.46 8 137.665 9.11405 140.046 11.3422C142.426 13.5397 143.617 16.6988 143.617 20.8192V28.5108C143.617 32.6312 142.426 35.8055 140.046 38.0336C137.665 40.2312 134.46 41.33 130.431 41.33ZM130.431 35.9276C132.69 35.9276 134.445 35.2714 135.696 33.9589C136.948 32.6465 137.573 30.8915 137.573 28.6939V20.6361C137.573 18.4385 136.948 16.6835 135.696 15.3711C134.445 14.0586 132.69 13.4024 130.431 13.4024C128.203 13.4024 126.448 14.0586 125.166 15.3711C123.915 16.6835 123.289 18.4385 123.289 20.6361V28.6939C123.289 30.8915 123.915 32.6465 125.166 33.9589C126.448 35.2714 128.203 35.9276 130.431 35.9276Z" fill="#121212"/>
<path d="M87.0323 40.6887L95.4564 8.64062H105.986L114.411 40.6887H108.184L106.444 33.6381H94.9986L93.2588 40.6887H87.0323ZM96.4179 28.0526H105.025L101.134 12.4406H100.309L96.4179 28.0526Z" fill="#121212"/>
<path d="M72.5903 41.33C70.118 41.33 67.9357 40.8874 66.0434 40.0023C64.151 39.1172 62.6707 37.8505 61.6024 36.2023C60.5341 34.5541 60 32.5702 60 30.2505V28.9686H65.9518V30.2505C65.9518 32.1734 66.547 33.6232 67.7373 34.5999C68.9277 35.5461 70.5453 36.0192 72.5903 36.0192C74.6658 36.0192 76.2072 35.6071 77.2144 34.783C78.2521 33.9589 78.771 32.9059 78.771 31.624C78.771 30.7389 78.5116 30.0216 77.9927 29.4722C77.5044 28.9228 76.7718 28.4802 75.7951 28.1445C74.8489 27.7782 73.6891 27.4425 72.3156 27.1373L71.2626 26.9084C69.065 26.42 67.1727 25.8096 65.5855 25.077C64.0289 24.314 62.8233 23.322 61.9687 22.1012C61.1446 20.8803 60.7325 19.2931 60.7325 17.3397C60.7325 15.3863 61.1904 13.7229 62.106 12.3494C63.0522 10.9454 64.3646 9.8771 66.0434 9.14458C67.7526 8.38153 69.7518 8 72.0409 8C74.3301 8 76.3598 8.39679 78.1301 9.19036C79.9309 9.95341 81.3349 11.1132 82.3421 12.6699C83.3798 14.196 83.8987 16.1188 83.8987 18.4385V19.812H77.9469V18.4385C77.9469 17.2176 77.7027 16.2409 77.2144 15.5084C76.7566 14.7454 76.0851 14.196 75.1999 13.8602C74.3148 13.494 73.2618 13.3108 72.0409 13.3108C70.2096 13.3108 68.8514 13.6618 67.9662 14.3638C67.1116 15.0353 66.6843 15.9662 66.6843 17.1566C66.6843 17.9502 66.8827 18.6216 67.2795 19.171C67.7068 19.7204 68.3325 20.1783 69.1566 20.5445C69.9807 20.9108 71.0337 21.2313 72.3156 21.506L73.3686 21.7349C75.6578 22.2232 77.6417 22.8489 79.3204 23.612C81.0296 24.375 82.3574 25.3823 83.3035 26.6337C84.2497 27.8851 84.7228 29.4875 84.7228 31.4409C84.7228 33.3943 84.2192 35.1188 83.212 36.6144C82.2353 38.0794 80.8313 39.2392 78.9999 40.0939C77.1991 40.918 75.0626 41.33 72.5903 41.33Z" fill="#121212"/>
</svg>

<svg xmlns="http://www.w3.org/2000/svg" width="173" height="50" fill="none"><path fill="#FF5C35" d="M20.434 30.002a6.68 6.68 0 0 0 4.498 1.733c3.708 0 6.715-3.015 6.715-6.734s-3.007-6.735-6.715-6.735a6.68 6.68 0 0 0-4.593 1.823 6.69 6.69 0 0 1-4.515 1.749 6.68 6.68 0 0 1-4.591-1.82 6.68 6.68 0 0 0-4.518-1.752C3.007 18.266.001 21.283.001 25s3.006 6.734 6.714 6.734a6.68 6.68 0 0 0 4.613-1.84 6.67 6.67 0 0 1 4.496-1.733 6.68 6.68 0 0 1 4.61 1.84"/><path fill="#FF5C35" d="M24.93 0c-3.709 0-6.715 3.015-6.715 6.735s3.006 6.734 6.715 6.734c6.34 0 11.5 5.174 11.5 11.531s-5.16 11.531-11.5 11.531c-3.709 0-6.715 3.015-6.715 6.735 0 3.719 3.006 6.734 6.715 6.734 13.77 0 24.932-11.193 24.932-25S38.7 0 24.93 0M6.716 13.47c3.71 0 6.716-3.016 6.716-6.735S10.426 0 6.716 0 0 3.015 0 6.735s3.007 6.734 6.716 6.734"/><path fill="#121212" d="M148.918 40.689V8.64h13.918q3.021 0 5.265 1.053t3.479 2.975 1.236 4.533v.55q0 2.883-1.373 4.67-1.374 1.785-3.388 2.609v.824q1.831.091 2.839 1.282 1.007 1.144 1.007 3.067V40.69h-6.044v-9.615q0-1.098-.595-1.785-.55-.687-1.877-.687h-8.424v12.087zm6.043-17.581h7.234q2.151 0 3.342-1.145 1.236-1.189 1.236-3.113v-.458q0-1.923-1.19-3.067-1.19-1.19-3.388-1.19h-7.234zM130.431 41.33q-6.043 0-9.614-3.296-3.571-3.343-3.571-9.523v-7.692q0-6.18 3.571-9.477Q124.388 8 130.431 8t9.615 3.342q3.57 3.297 3.571 9.477v7.692q0 6.18-3.571 9.523-3.572 3.296-9.615 3.296m0-5.402q3.388 0 5.265-1.97 1.878-1.967 1.877-5.264v-8.058q0-3.296-1.877-5.265-1.876-1.969-5.265-1.969-3.342 0-5.265 1.97-1.877 1.967-1.877 5.264v8.058q0 3.297 1.877 5.265 1.923 1.969 5.265 1.969M87.032 40.689 95.456 8.64h10.53l8.425 32.048h-6.227l-1.74-7.05H94.999l-1.74 7.05zm9.386-12.636h8.607l-3.891-15.612h-.825zM72.59 41.33q-3.708 0-6.547-1.328t-4.44-3.8T60 30.251v-1.282h5.952v1.281q0 2.884 1.785 4.35 1.785 1.42 4.853 1.42 3.114 0 4.624-1.237 1.557-1.236 1.557-3.159 0-1.327-.778-2.152-.733-.825-2.198-1.328-1.419-.549-3.48-1.007l-1.052-.229q-3.296-.732-5.678-1.831-2.334-1.144-3.616-2.976-1.236-1.83-1.236-4.761t1.373-4.99q1.42-2.107 3.937-3.205Q68.608 8 72.041 8t6.09 1.19q2.7 1.144 4.211 3.48 1.557 2.289 1.557 5.769v1.373h-5.952v-1.373q0-1.832-.733-2.93-.686-1.146-2.014-1.649-1.327-.55-3.16-.55-2.746 0-4.074 1.054-1.281 1.007-1.282 2.793 0 1.19.596 2.014.64.824 1.877 1.374 1.236.549 3.159.961l1.053.229q3.434.732 5.951 1.877 2.564 1.144 3.984 3.022t1.419 4.807-1.511 5.173q-1.465 2.198-4.212 3.48-2.7 1.236-6.41 1.236"/></svg>
